X:1
T:Title
L:1/8
Q:1/4=110
M:4/4
K:G
V:1 treble nm="Church Organ, Staff"
V:1
 D2 G2 G2 F2 | E2 D2 G2 G2 | F2 ED G2 A2 | B2 cB A4- | A2 d2 d3 d | c2 B2 A2 B2 | c2 BA G2 F2 | %7
w: By~Chas.~H.~Sunderland * * *|||||||
 B3 A G4- | G2 B2 B2 B2 | B2 B2 B2 B2 | B2 A2 G2 AB | F2 G2 E4- | E2 B2 B2 B2 | B2 B2 B2 B2 | %14
w: |||||||
 B2 A2 G2 AB | F2 G2 E4- | E2 D2 G3 A | B2 e2 d2 B2 | G3 G c3 B | A2 G2 F4- | F2 E2 A3 B | %21
w: |||||||
 c2 d2 e2 c2 | A2 c2 B2 D2 | E3 A G4- | G2 z2 z4 |] %25
w: ||||

